X:1
T:Brown's Ferry Blues
M:4/4
L:1/4
K:E
 B B B/2B/2 c| =d/2d/2 c B =G/2G/2| =G F E F| =G/2G/2 F E- C| E3/2 C/2- C C/2C/2|\
 B,/2 E G/2- G2| G/2 =G F/2- F2| z4| B B B/2B/2 c|=d/2-d/2 c B=G/2-G/2|\
 =G/2G/2 F E F|=G/2-G/2 F E- C| E3/2 C/2- C C/2C/2| B,/2 E G/2- G2|\
 G/2 F E/2- E2| z4|
